img/i_nav_find_on.svg

<svg width="24" height="24" viewBox="0 0 24 24" fill="none" xmlns="http://www.w3.org/2000/svg">
<path d="M12 21.495C11.8548 21.4948 11.7121 21.4569 11.5859 21.385C11.2699 21.204 3.84998 16.89 3.84998 10.656C3.88349 8.5166 4.75696 6.47616 6.28174 4.97508C7.80651 3.47401 9.86033 2.63268 12 2.63268C14.1397 2.63268 16.1935 3.47401 17.7183 4.97508C19.243 6.47616 20.1165 8.5166 20.15 10.656C20.15 16.825 12.734 21.199 12.418 21.382C12.291 21.4557 12.1468 21.4946 12 21.495ZM12 4.17599C10.282 4.17785 8.63488 4.86115 7.42004 6.07599C6.20521 7.29082 5.52187 8.93797 5.52002 10.656C5.52002 15.156 10.5029 18.71 11.9969 19.676C13.4899 18.7 18.481 15.104 18.481 10.656C18.4788 8.93788 17.7953 7.29073 16.5803 6.07593C15.3653 4.86112 13.7181 4.17785 12 4.17599ZM12 14.897C11.1869 14.897 10.3921 14.6559 9.71606 14.2042C9.04001 13.7525 8.51306 13.1104 8.2019 12.3592C7.89075 11.608 7.80939 10.7814 7.96802 9.98398C8.12664 9.18652 8.51821 8.45402 9.09314 7.87909C9.66807 7.30416 10.4005 6.91262 11.198 6.754C11.9955 6.59537 12.8221 6.67678 13.5732 6.98793C14.3244 7.29908 14.9665 7.82599 15.4182 8.50204C15.8699 9.1781 16.111 9.97292 16.111 10.786C16.1099 11.876 15.6765 12.921 14.9058 13.6917C14.135 14.4625 13.09 14.8959 12 14.897ZM12 8.345C11.5173 8.3452 11.0455 8.48853 10.6442 8.75687C10.2429 9.02521 9.93008 9.40652 9.74548 9.85257C9.56088 10.2986 9.51276 10.7894 9.60706 11.2628C9.70135 11.7363 9.93385 12.1711 10.2753 12.5124C10.6167 12.8537 11.0517 13.0861 11.5251 13.1802C11.9986 13.2743 12.4893 13.2259 12.9353 13.0411C13.3813 12.8563 13.7625 12.5434 14.0306 12.142C14.2988 11.7406 14.442 11.2687 14.442 10.786C14.4415 10.1386 14.184 9.51787 13.7261 9.06018C13.2682 8.60249 12.6474 8.34527 12 8.345Z" fill="#00B28F"/>
</svg>

<svg xmlns="http://www.w3.org/2000/svg" width="24" height="24" fill="none" xmlns:v="https://vecta.io/nano"><path d="M12 21.495a.84.84 0 0 1-.414-.11c-.316-.181-7.736-4.495-7.736-10.729A8.15 8.15 0 0 1 12 2.633a8.15 8.15 0 0 1 8.15 8.023c0 6.169-7.416 10.543-7.732 10.726-.127.074-.271.113-.418.113zm0-17.319c-1.718.002-3.365.685-4.58 1.9s-1.898 2.862-1.9 4.58c0 4.5 4.983 8.054 6.477 9.02 1.493-.976 6.484-4.572 6.484-9.02A6.49 6.49 0 0 0 12 4.176zm0 10.721a4.11 4.11 0 0 1-3.798-2.538 4.11 4.11 0 0 1 .891-4.48 4.11 4.11 0 0 1 4.48-.891 4.11 4.11 0 0 1 2.538 3.798c-.001 1.09-.434 2.135-1.205 2.906S13.09 14.896 12 14.897zm0-6.552a2.44 2.44 0 0 0-2.255 1.508 2.44 2.44 0 0 0 .53 2.66 2.44 2.44 0 0 0 2.66.529 2.44 2.44 0 0 0 1.507-2.255c-.001-.647-.258-1.268-.716-1.726S12.647 8.345 12 8.345z" fill="#00b28f"/></svg>
